X:131
T:Mattie and Karine's Wedding Jig
S:Christina Smith, Victoria Bar, Glasgow
D:Lau:http://www.lau-music.co.uk/download/01_weddingjig.mp3
Z:robin.beech@mcgill.ca
R:jig
M:6/8
L:1/8
K:G
GAB BGg- | g2a fed | Bce- edB | cAG AFD |
GAB gBg | g2a fed | Bce edB | cAG AFD ::
CEG F2D | CEG EFD | GFG FGD | CEG FDB, |
CEG F2D | CEG EFG- | GFG FGD |1 CEG FDB, :|2 CEG DFA |:
Gdd GdF- | Fdd dAD | EEc- cAE | FGA DFA |
Gdd GdF- | Fdd dAD | EEc- cAE | FGA DFA :|
